X: 117
T: J'ay pris amours / De tous biens plaine
%%abc-version 2.0
%%abcx-abcm2ps-target-version 5.9.1 (29 Sep 2008)
%%abc-creator hum2abc beta
%%abcx-conversion-date 2022/03/06 13:05:57
%%abc-copyright Copyright 2018, Kolb, Paul
%%abc-edited-by Zybina, Karina
%%humdrum-veritas 1731542316
%%humdrum-veritas-data 3669744537
%%linebreak <none>
%%barnumbers 0
L: 1/4
M: 2/2
N: Derived from Gas0509-Jay_pris_amours_De_tous_biens_plaine.krn
%%staves [1 2 3 4]
V: 1 clef=treble
V: 2 clef=treble-8
V: 3 clef=treble-8
V: 4 clef=bass
K: Bb
[V:1] z4 | 
[V:2] G4 | 
[V:3] z4 | 
[V:4] G,4- | 
[V:1] z4 | 
[V:2] B2B2 | 
[V:3] z4 | 
[V:4] G,2E,G, | 
[V:1] z4 | 
[V:2] A4 | 
[V:3] z4 | 
[V:4] D,4 | 
[V:1] z4 | 
[V:2] G2B3/c/ | 
[V:3] G4 | 
[V:4] G,,2G,,2 | 
[V:1] z4 | 
[V:2] dedg- | 
[V:3] B4 | 
[V:4] G,E,G,2 | 
[V:1] z4 | 
[V:2] gf/e/ f/e/d/c/ | 
[V:3] A4 | 
[V:4] D,>C,D,2 | 
[V:1] G4 | 
[V:2] B>cd2- | 
[V:3] G2B2- | 
[V:4] G,,4 | 
[V:1] B2B2 | 
[V:2] dcde | 
[V:3] BAB2 | 
[V:4] G,4 | 
[V:1] A4 | 
[V:2] f4 | 
[V:3] c2d2- | 
[V:4] F,2D,2 | 
[V:1] D4 | 
[V:2] g4- | 
[V:3] dcd2 | 
[V:4] G,4 | 
[V:1] z2F2 | 
[V:2] g2fd- | 
[V:3] e2d2 | 
[V:4] C,2D,2 | 
[V:1] G2A2 | 
[V:2] def2 | 
[V:3] B2c2 | 
[V:4] G,2F,2 | 
[V:1] B2AF | 
[V:2] d>ef2 | 
[V:3] B2d2- | 
[V:4] G,2D,2 | 
[V:1] G2F2 | 
[V:2] B2fd | 
[V:3] dcd2 | 
[V:4] G,2D,2 | 
[V:1] z2A2 | 
[V:2] eg2^f | 
[V:3] G2A2 | 
[V:4] C,E,D,2 | 
[V:1] B2c2 | 
[V:2] g2ef- | 
[V:3] G2z2 | 
[V:4] G,,2z2 | 
[V:1] d2cA | 
[V:2] fe/d/ef | 
[V:3] z4 | 
[V:4] D,2z2 | 
[V:1] BG2A | 
[V:2] dB>Gc | 
[V:3] z4 | 
[V:4] G,3F, | 
[V:1] G^F/=E/F2 | 
[V:2] BGA2 | 
[V:3] z4 | 
[V:4] G,2D,2 | 
[V:1] G4 | 
[V:2] G2d3/e/ | 
[V:3] z2G2 | 
[V:4] G,,>A,,B,,C, | 
[V:1] z4 | 
[V:2] fdcB- | 
[V:3] FBAd- | 
[V:4] D,>E,F,G,- | 
[V:1] G4 | 
[V:2] B/A/G/F/G2 | 
[V:3] dc/B/c2 | 
[V:4] G,/F,/E,/D,/E,2 | 
[V:1] B2A2- | 
[V:2] z2A3/B/ | 
[V:3] d4 | 
[V:4] D,4 | 
[V:1] A2F2 | 
[V:2] cd>cd | 
[V:3] z4 | 
[V:4] z4 | 
[V:1] G2F2- | 
[V:2] Bedf- | 
[V:3] z4 | 
[V:4] z4 | 
[V:1] F2B2- | 
[V:2] f/e/d/c/ed- | 
[V:3] z4 | 
[V:4] z4 | 
[V:1] B2A2 | 
[V:2] dc/B/c2 | 
[V:3] z4 | 
[V:4] F,4 | 
[V:1] B4 | 
[V:2] BB2A/G/ | 
[V:3] d3c/B/ | 
[V:4] B,,3C, | 
[V:1] z4 | 
[V:2] F>EGF | 
[V:3] ABcA | 
[V:4] D,2C,D, | 
[V:1] B4 | 
[V:2] G2de | 
[V:3] G4 | 
[V:4] G,,B,,2C, | 
[V:1] A2F2 | 
[V:2] f>ed2- | 
[V:3] F4 | 
[V:4] D,4 | 
[V:1] G4 | 
[V:2] dc/B/c2 | 
[V:3] E4 | 
[V:4] G,4 | 
[V:1] F2D2- | 
[V:2] dc/B/Az | 
[V:3] D4 | 
[V:4] A,4 | 
[V:1] D2G2- | 
[V:2] A2Gd | 
[V:3] d2cB | 
[V:4] D,2E,G,- | 
[V:1] G2F2 | 
[V:2] Bcd2 | 
[V:3] G2A2 | 
[V:4] G,F,/E,/D,2 | 
[V:1] G2A2 | 
[V:2] B2c2 | 
[V:3] G2z2 | 
[V:4] G,2F,2 | 
[V:1] F4 | 
[V:2] d3e/f/ | 
[V:3] z4 | 
[V:4] D,4 | 
[V:1] z4 | 
[V:2] g2fd- | 
[V:3] G2B2- | 
[V:4] G,,2z2 | 
[V:1] z4 | 
[V:2] dgag- | 
[V:3] B2c2 | 
[V:4] G,2C,2 | 
[V:1] z4 | 
[V:2] g^f/=e/^f2 | 
[V:3] A4 | 
[V:4] D,4 | 
[V:1] z4 | 
[V:2] zg2f/e/ | 
[V:3] G4 | 
[V:4] G,,4 | 
[V:1] z4 | 
[V:2] d2c2- | 
[V:3] B2A2 | 
[V:4] z4 | 
[V:1] z4 | 
[V:2] cd2B- | 
[V:3] F2G2- | 
[V:4] z2G,,2 | 
[V:1] z4 | 
[V:2] BA/G/A2 | 
[V:3] G^F^F=E | 
[V:4] D,4 | 
[V:1] z4 | 
[V:2] Gded- | 
[V:3] G4 | 
[V:4] G,,4 | 
[V:1] F4 | 
[V:2] dc/B/A2 | 
[V:3] z4 | 
[V:4] D,4 | 
[V:1] G3F | 
[V:2] G2B2 | 
[V:3] z2G2 | 
[V:4] G,,4 | 
[V:1] =EDD2- | 
[V:2] cA2B- | 
[V:3] AF2G- | 
[V:4] z4 | 
[V:1] D2^C2 | 
[V:2] B/A/F/G/A2 | 
[V:3] G/F/D=E2 | 
[V:4] B,,2A,,2 | 
[V:1] D4 | 
[V:2] F2G2 | 
[V:3] D4 | 
[V:4] B,,2G,,2 | 
[V:1] z2A2 | 
[V:2] ABAd- | 
[V:3] z2D2 | 
[V:4] D,2z2 | 
[V:1] A2A2 | 
[V:2] dc/B/A2 | 
[V:3] F4 | 
[V:4] D,4 | 
[V:1] B3A | 
[V:2] G2B2 | 
[V:3] G4 | 
[V:4] G,,4 | 
[V:1] F2G2 | 
[V:2] A2G2 | 
[V:3] A2B2 | 
[V:4] D,2G,,2 | 
[V:1] A2F2- | 
[V:2] =e2f2 | 
[V:3] c2d2 | 
[V:4] z2D,2 | 
[V:1] F=E/D/=E2 | 
[V:2] g4 | 
[V:3] z4 | 
[V:4] C,4 | 
[V:1] F4 | 
[V:2] f2d2 | 
[V:3] z4 | 
[V:4] D,4 | 
[V:1] z2D2 | 
[V:2] e2f2 | 
[V:3] z4 | 
[V:4] z4 | 
[V:1] E2F2 | 
[V:2] g2d2 | 
[V:3] z4 | 
[V:4] z2D,2 | 
[V:1] G2D2 | 
[V:2] B2A2 | 
[V:3] z4 | 
[V:4] E,2F,2 | 
[V:1] z2F2 | 
[V:2] Bd>cd | 
[V:3] d4 | 
[V:4] G,2D,2 | 
[V:1] G2F2 | 
[V:2] GcAd- | 
[V:3] e2d2 | 
[V:4] C,2D,2 | 
[V:1] B3A | 
[V:2] d/c/dzG- | 
[V:3] B4 | 
[V:4] G,,2G,2 | 
[V:1] G2F2 | 
[V:2] G/F/GAd- | 
[V:3] c2d2- | 
[V:4] E,2D,2 | 
[V:1] B2Ad- | 
[V:2] d/=e/gfg/a/ | 
[V:3] dcd2- | 
[V:4] G,2D,2 | 
[V:1] dcA2 | 
[V:2] dg2^f | 
[V:3] d2c2 | 
[V:4] G,2A,2 | 
[V:1] B2G2- | 
[V:2] gd>cd- | 
[V:3] d2B2 | 
[V:4] G,4 | 
[V:1] G^F/=E/F2 | 
[V:2] d/c<dc/d | 
[V:3] A4 | 
[V:4] D,4 | 
[V:1] G4- | 
[V:2] B3c | 
[V:3] G4- | 
[V:4] G,,4- | 
[V:1] G4 |]  
[V:2] d4 |]  
[V:3] G4 |]  
[V:4] G,,4 |]  



